X:1
T:BRAVEHEART THEME SONG
N:Very common tune.
Z:Transcribed Sept. 28, 2003 by Andrew T. Lenz, Jr.
C:Traditional, Arr. PM Jay Salter
R:March
M:4/4
L:1/8
Q:1/4=80
K:HP
|:   B2 d2 | {geg}e2 {e} A3/2{Gdc}d/2 | {g}fd {gf}gf | {g}fe {A} e{gf}g |
\
|f/2a3/2 {fg}fa | A2 {Gdc}d3/2e/2 | {g}f2 {gf}ge | {Gdc}d2 {gdG}d :|
\
|{gf}g | f/2a3/2 {fg}fa | A2 {Gdc}d3/2e/2 | {g}fd {gf}gf | {g}fe {A} e{gf}g |
\
|f/2a3/2 {fg}fa | A2 {Gdc}d3/2e/2 | {g}f2 {gf}ge | {Gdc}d2 {gdG}d{gf}g |
\
|f/2a3/2 {fg}fa | A2 {Gdc}d3/2e/2 | {g}fd {gf}gf | {g}fe {A} e{gf}g |
\
